X: 10431
Q: "Andante"
M: 6/8
L: 1/8
K: F
|:\
|: c |\
c2B GAB | c2A F2c | c2B GAB | c2A F2c |\
d2B f2f | c2A Hf2f | c>dc cBA | A3 {BA}G2 "_D.C."y|]


